lib/brands/icons/google-sites.svg

<svg xmlns="http://www.w3.org/2000/svg" fill="none" aria-hidden="true" viewBox="0 0 48 48"><g id="google-sites-Icon"><g id="Group"><path id="Vector" fill="#4758B5" d="M35.8182 44H12.1819C10.675 44 9.45459 42.7795 9.45459 41.2727V6.72727C9.45459 5.22045 10.675 4 12.1819 4H28.5455L38.5455 14V41.2727C38.5455 42.7795 37.325 44 35.8182 44Z"/><path id="Vector_2" fill="#354287" d="M28.5454 4L38.5454 14H28.5454V4Z"/><g id="Vector_3"><path fill="white" d="M32.182 19.4546H15.8184V21.7273H32.182V19.4546Z"/><path fill="white" d="M32.182 24H29.9093V31.7273H32.182V24Z"/><path fill="white" d="M27.6365 24H15.8184V31.7273H27.6365V24Z"/></g></g></g></svg>

<svg xmlns="http://www.w3.org/2000/svg" fill="none" aria-hidden="true" viewBox="0 0 48 48"><path fill="#4758B5" d="M35.818 44H12.182a2.727 2.727 0 0 1-2.727-2.727V6.727A2.726 2.726 0 0 1 12.182 4h16.363l10 10v27.273A2.727 2.727 0 0 1 35.819 44Z"/><path fill="#354287" d="m28.545 4 10 10h-10V4Z"/><path fill="#fff" d="M32.182 19.455H15.818v2.272h16.364v-2.272Zm0 4.545h-2.273v7.727h2.273V24Zm-4.545 0H15.818v7.727h11.819V24Z"/></svg>
